X: 1236
T: Back on the Monaro
C:Bob Rummery, Sorrento, WA
B: australian traditional tunes wiki
M:2/4
L:1/16
R: Polka
Q: 1/4=100
K:G
V:1 
B2|:"G"g3e d2GB|"Am"c2A2A4|"D7"F2FG A2c2|"G"e2d2B4|
"G"g3e d2GB|"Am"c2A2A4|"D7"F2FG A2A2|c2B2"G"G4:|
|:"D"F3G A2FA|"G"G2GA BAG2|{Bc}"C"e2ee "G"d2B2|GAB2"D"A4|
F3G A2FA|"G"G2GA B2G2|"C"e2cc "G"BAG2|"D7"A2F2"G"G4:|
% abcbook-tune_id 6342d53abc51834142592a88


% abcbook-boost 0
% abcbook-tablature 
% abcbook-transpose 
% abcbook-lastupdated 1665324355301
% abcbook-soundfonts 
% abcbook-repeats 1
% NFF Book 2008

